img/Parceiros/caravan.svg

<svg width="140" height="38" fill="none" xmlns="http://www.w3.org/2000/svg"><path d="M11.394 22.737v5.086c0 2.543-1.12 3.46-2.9 3.46-1.78 0-2.899-.917-2.899-3.46V8.596c0-2.543 1.12-3.51 2.9-3.51 1.78 0 2.899.967 2.899 3.51v3.815h5.29V8.952C16.684 3.255 13.835 0 8.342 0 2.848 0 0 3.255 0 8.952v18.515c0 5.697 2.848 8.953 8.342 8.953 5.493 0 8.342-3.256 8.342-8.953v-4.73h-5.29ZM32.503.407 38.2 36.013h-5.646l-.967-6.46h-6.866l-.967 6.46h-5.137L24.314.407h8.189Zm-4.425 6.307-2.645 18.007h5.391L28.18 6.713h-.101l-.001.001ZM58.19 36.013h-5.697c-.305-.916-.509-1.476-.509-4.375v-5.595c0-3.306-1.119-4.527-3.662-4.527h-1.933v14.497h-5.595V.407h8.444c5.798 0 8.29 2.696 8.29 8.19v2.797c0 3.662-1.17 6.002-3.662 7.172 2.798 1.271 3.713 3.916 3.713 7.63v5.493c0 1.73.051 3.001.61 4.324h.001Zm-9.105-30.52h-2.696V16.43h2.187c2.086 0 3.357-.915 3.357-3.764v-3.51c0-2.543-.864-3.662-2.848-3.662v-.001ZM75.242.407l5.697 35.606h-5.646l-.966-6.46H67.46l-.966 6.46h-5.138L67.053.407h8.19-.001Zm-4.425 6.307-2.645 18.007h5.392L70.919 6.713h-.102v.001ZM86.115.407h-5.646l5.493 35.606h8.342L99.797.407H94.66L90.438 29.45h-.102L86.115.407Zm27.098 0 5.697 35.606h-5.646l-.966-6.46h-6.867l-.967 6.46h-5.137L105.024.407h8.189Zm-4.425 6.307-2.645 18.007h5.392L108.89 6.713h-.102v.001Zm25.464 29.299H140V.407h-4.985v21.312h-.102L129.267.407h-7.019v35.606h5.036v-25.79h.101l6.867 25.79Z" fill="#9C9C9C"/></svg>

<svg width="140" height="38" viewBox="0 0 140 38" fill="none" xmlns="http://www.w3.org/2000/svg">
<path d="M11.394 22.737V27.823C11.394 30.366 10.274 31.283 8.494 31.283C6.714 31.283 5.595 30.366 5.595 27.823V8.596C5.595 6.053 6.715 5.086 8.495 5.086C10.275 5.086 11.394 6.053 11.394 8.596V12.411H16.684V8.952C16.684 3.255 13.835 0 8.342 0C2.848 0 0 3.255 0 8.952V27.467C0 33.164 2.848 36.42 8.342 36.42C13.835 36.42 16.684 33.164 16.684 27.467V22.737H11.394ZM32.503 0.407L38.2 36.013H32.554L31.587 29.553H24.721L23.754 36.013H18.617L24.314 0.407H32.503ZM28.078 6.714L25.433 24.721H30.824L28.18 6.713H28.079L28.078 6.714ZM58.19 36.013H52.493C52.188 35.097 51.984 34.537 51.984 31.638V26.043C51.984 22.737 50.865 21.516 48.322 21.516H46.389V36.013H40.794V0.407H49.238C55.036 0.407 57.528 3.103 57.528 8.597V11.394C57.528 15.056 56.358 17.396 53.866 18.566C56.664 19.837 57.579 22.482 57.579 26.196V31.689C57.579 33.419 57.63 34.69 58.189 36.013H58.19ZM49.085 5.493H46.389V16.43H48.576C50.662 16.43 51.933 15.515 51.933 12.666V9.156C51.933 6.613 51.069 5.494 49.085 5.494V5.493ZM75.242 0.407L80.939 36.013H75.293L74.327 29.553H67.46L66.494 36.013H61.356L67.053 0.407H75.243H75.242ZM70.817 6.714L68.172 24.721H73.564L70.919 6.713H70.817V6.714ZM86.115 0.407H80.469L85.962 36.013H94.304L99.797 0.407H94.66L90.438 29.45H90.336L86.115 0.407ZM113.213 0.407L118.91 36.013H113.264L112.298 29.553H105.431L104.464 36.013H99.327L105.024 0.407H113.213ZM108.788 6.714L106.143 24.721H111.535L108.89 6.713H108.788V6.714ZM134.252 36.013H140V0.407H135.015V21.719H134.913L129.267 0.407H122.248V36.013H127.284V10.223H127.385L134.252 36.013Z" fill="#9C9C9C"/>
</svg>
